static/images/social/paypal.svg

<svg xmlns="http://www.w3.org/2000/svg" width="24" height="24" viewBox="0 0 24 24"><path d="M8.32 21.97a.546.546 0 0 1-.26-.32c-.03-.15-.06.11.6-4.09.6-3.8.59-3.74.67-3.85.13-.17.11-.17 1.61-.18 1.32-.03 1.6-.03 2.19-.12 3.25-.45 5.26-2.36 5.96-5.66.04-.22.08-.41.09-.41 0-.01.07.04.15.1 1.03.78 1.38 2.22.99 4.14-.46 2.29-1.68 3.81-3.58 4.46-.81.28-1.49.39-2.69.42-.8.04-.82.04-1.05.19-.17.17-.16.14-.55 2.55-.27 1.7-.37 2.25-.41 2.35-.07.16-.21.3-.37.38l-.11.07H10c-1.29 0-1.62 0-1.68-.03m-4.5-2.23c-.19-.1-.32-.27-.32-.47C3.5 19 6.11 2.68 6.18 2.5c.09-.18.32-.37.5-.44L6.83 2h3.53c3.91 0 3.76 0 4.64.2 2.62.55 3.82 2.3 3.37 4.93-.5 2.93-1.98 4.67-4.5 5.3-.87.21-1.48.27-3.14.27-1.31 0-1.41.01-1.67.15-.26.15-.47.42-.56.75-.04.07-.27 1.47-.53 3.1a241.3 241.3 0 0 0-.47 3.02l-.03.06H5.69c-1.58 0-1.8 0-1.87-.04z"/></svg>

<?xml version="1.0" encoding="UTF-8"?><!DOCTYPE svg PUBLIC "-//W3C//DTD SVG 1.1//EN" "http://www.w3.org/Graphics/SVG/1.1/DTD/svg11.dtd"><svg xmlns="http://www.w3.org/2000/svg" xmlns:xlink="http://www.w3.org/1999/xlink" version="1.1" width="24" height="24" viewBox="0 0 24 24"><path d="M8.32,21.97C8.21,21.92 8.08,21.76 8.06,21.65C8.03,21.5 8,21.76 8.66,17.56C9.26,13.76 9.25,13.82 9.33,13.71C9.46,13.54 9.44,13.54 10.94,13.53C12.26,13.5 12.54,13.5 13.13,13.41C16.38,12.96 18.39,11.05 19.09,7.75C19.13,7.53 19.17,7.34 19.18,7.34C19.18,7.33 19.25,7.38 19.33,7.44C20.36,8.22 20.71,9.66 20.32,11.58C19.86,13.87 18.64,15.39 16.74,16.04C15.93,16.32 15.25,16.43 14.05,16.46C13.25,16.5 13.23,16.5 13,16.65C12.83,16.82 12.84,16.79 12.45,19.2C12.18,20.9 12.08,21.45 12.04,21.55C11.97,21.71 11.83,21.85 11.67,21.93L11.56,22H10C8.71,22 8.38,22 8.32,21.97V21.97M3.82,19.74C3.63,19.64 3.5,19.47 3.5,19.27C3.5,19 6.11,2.68 6.18,2.5C6.27,2.32 6.5,2.13 6.68,2.06L6.83,2H10.36C14.27,2 14.12,2 15,2.2C17.62,2.75 18.82,4.5 18.37,7.13C17.87,10.06 16.39,11.8 13.87,12.43C13,12.64 12.39,12.7 10.73,12.7C9.42,12.7 9.32,12.71 9.06,12.85C8.8,13 8.59,13.27 8.5,13.6C8.46,13.67 8.23,15.07 7.97,16.7C7.71,18.33 7.5,19.69 7.5,19.72L7.47,19.78H5.69C4.11,19.78 3.89,19.78 3.82,19.74V19.74Z" /></svg>
